X: 275
T:Nancy Dawson. JaW.274
M:6/8
L:1/8
Q:120
C:"a Hornpipe"
S:James Winder Ms, Lancashire, 1835-41
R:Jig
O:England
A:Wyresdale,Lancashire
H:1/8
Z:vmp.Chris Partington, Aug 2004
K:G
A2B A2B|A2B (AFD)|B2c d2e|d2e dBG|!
c2B c2d|e2f gfe|dcB AGF|G3 G2:|]
